public/avatar/shoe/56.svg

<svg xmlns:xlink="http://www.w3.org/1999/xlink" height="38.3" width="36.05" xmlns="http://www.w3.org/2000/svg"><use height="19.1" transform="translate(9.65 10.05)" width="21.35" xlink:href="#a"/><defs><g id="a"><path d="M14.35 2.4 14 1.75q-.7-.9-4.4-.7-.8.05-1.45 1.7l-.5 1.6-2.55 2.4q-2.65 3.3-4 6.4-.3.55.15 2.25l.55 1.85 1.75.65 5.5.2q3.5-.35 5.8-1.9.55-.35.7-2.15l.35.3 1.3.35.95-.1q.8-.1 1.4-.8v.1q.95-.95.75-2.15l-.3-2.2-.4-3.05-.65-1.8q-.55-1-2.2-1.55l-.5-.25-1.9-.5Z" fill="none" stroke="#000" stroke-linecap="round" stroke-linejoin="round" stroke-width="2"/><path d="M.7 11.4q-2.3 1.55-5.8 1.9l-5.5-.2-1.75-.65-.55-1.85q-.45-1.7-.15-2.25 1.35-3.1 4-6.4 5.3-6.2 11.15-3.85Q5.2-.65 5.75 3.65L6 7.45q.1.6-.5 1.45-.55.75-1.5.9l-.95.1L1.5 8.7q-.15 2.3-.8 2.7" fill="#db260d" fill-rule="evenodd" transform="translate(14.15 4.8)"/><path d="M-.35-2.35q2.95-.2 4.5 1.4Q6.2 1.1 5.55 3.4q-.5 1.85-3.25 2.05L-.55 8q-2.7 2.05-5.35 2.15l-5.6-.2q-1-.2-1.15-1.4-.1-1.2.6-2.4 2.65-4.5 6.5-7.05 1.9-1.25 5.2-1.45" fill="#ff8600" fill-rule="evenodd" transform="translate(14.15 4.8)"/><path d="m4.8-.1.65 1.8.3 1.95q-.8 1.55-1.3 1.8l-.6-1.65Q3.15 1.9.95.2l-.5-.65L.2-.8l-.35-.4-.2-.6q.95-.45 2.6 0 1.9.5 2.55 1.7" fill="#c96900" fill-rule="evenodd" transform="translate(14.15 4.8)"/><path d="m5.65 3.25.2 1.5.3 2.2q.2 1.2-.75 2.15L4.2 4.7l1.45-1.45" fill="#850000" fill-rule="evenodd" transform="translate(14.15 4.8)"/><path d="M3.65-.4.15-.6Q-.7-.55-1.4-.9l-1.25-1.15q.45-.65 2.2-.5l2.3.05 1.6.9q1.15.85.2 1.2" fill="#422300" fill-rule="evenodd" transform="translate(14.15 4.8)"/><path d="m1.75 9.55-.35-.3.25-3.4.65-.4 1.35-.4.2 5.2q-.45.5-2.1-.7" fill="#211100" fill-rule="evenodd" transform="translate(14.15 4.8)"/><path d="m-6.5-.45.5-1.6q.65-1.65 1.45-1.7 3.7-.2 4.4.7 1 1.15.25 3L-5.7 1.9l-2.55-.75 1.75-1.6m-5.9 7.05q1.4-2.1 4.9-1.75Q-4 5.2-1.4 9l-1.45.45q-3.5 1.15-8.4.2-1.9-.3-1.9-1.25l.75-1.8" fill="#ff8600" fill-rule="evenodd" transform="translate(14.15 4.8)"/><path d="M-.15-3.05q.95.9.45 2.3L-3 2l-3.05 1.9-.35-2.55L-6.5-1q.15-1.15.7-1.95.8-1.3 3.1-1.3 1.55.1 2.55 1.2" fill="#d46f00" fill-rule="evenodd" transform="translate(14.15 4.8)"/><path d="M-2.2 8.2Q-4 5.4-7.1 4.9q-3-.4-4.25.5" fill="none" stroke="#ffedd9" stroke-linecap="round" stroke-linejoin="round" transform="translate(14.15 4.8)"/><path d="M5.65 1.8q.65 2.2-3 3.45Q2.25 5.4.3 7.5q-1.85 1.95-3.65 2.45-3.85 1-8.15 0-1.55-.35-1.65-.85" fill="none" stroke="#000" stroke-linecap="round" stroke-linejoin="round" transform="translate(14.15 4.8)"/><path d="m-6.75 1.2.25-1.65 1.45 2.35Q-4.6 2.2.3-.75q-2.45 2.4-3.7 3.3L-6.05 3.9l-.7-2.7" fill="#8a4800" fill-rule="evenodd" transform="translate(14.15 4.8)"/></g></defs></svg>

<?xml version="1.0" encoding="UTF-8" standalone="no"?>
<svg xmlns:xlink="http://www.w3.org/1999/xlink" height="38.3px" width="36.05px" xmlns="http://www.w3.org/2000/svg">
  <g transform="matrix(1.0, 0.0, 0.0, 1.0, 23.8, 14.85)">
    <use height="19.1" transform="matrix(1.0, 0.0, 0.0, 1.0, -14.15, -4.8)" width="21.35" xlink:href="#shape0"/>
  </g>
  <defs>
    <g id="shape0" transform="matrix(1.0, 0.0, 0.0, 1.0, 14.15, 4.8)">
      <path d="M0.2 -2.4 L-0.15 -3.05 Q-0.85 -3.95 -4.55 -3.75 -5.35 -3.7 -6.0 -2.05 L-6.5 -0.45 -9.05 1.95 Q-11.7 5.25 -13.05 8.35 -13.35 8.9 -12.9 10.6 L-12.35 12.45 -10.6 13.1 -5.1 13.3 Q-1.6 12.95 0.7 11.4 1.25 11.05 1.4 9.25 L1.75 9.55 3.05 9.9 4.0 9.8 Q4.8 9.7 5.4 9.0 L5.4 9.1 Q6.35 8.15 6.15 6.95 L5.85 4.75 5.45 1.7 4.8 -0.1 Q4.25 -1.1 2.6 -1.65 L2.1 -1.9 0.2 -2.4 Z" fill="none" stroke="#000000" stroke-linecap="round" stroke-linejoin="round" stroke-width="2.0"/>
      <path d="M0.7 11.4 Q-1.6 12.95 -5.1 13.3 L-10.6 13.1 -12.35 12.45 -12.9 10.6 Q-13.35 8.9 -13.05 8.35 -11.7 5.25 -9.05 1.95 -3.75 -4.25 2.1 -1.9 5.2 -0.65 5.75 3.65 L6.0 7.45 Q6.1 8.05 5.5 8.9 4.95 9.65 4.0 9.8 L3.05 9.9 1.5 8.7 Q1.35 11.0 0.7 11.4" fill="#db260d" fill-rule="evenodd" stroke="none"/>
      <path d="M-0.35 -2.35 Q2.6 -2.55 4.15 -0.95 6.2 1.1 5.55 3.4 5.05 5.25 2.3 5.45 L-0.55 8.0 Q-3.25 10.05 -5.9 10.15 L-11.5 9.95 Q-12.5 9.75 -12.65 8.55 -12.75 7.35 -12.05 6.15 -9.4 1.65 -5.55 -0.9 -3.65 -2.15 -0.35 -2.35" fill="#ff8600" fill-rule="evenodd" stroke="none"/>
      <path d="M4.8 -0.1 L5.45 1.7 5.75 3.65 Q4.95 5.2 4.45 5.45 L3.85 3.8 Q3.15 1.9 0.95 0.2 L0.45 -0.45 0.2 -0.8 -0.15 -1.2 -0.35 -1.8 Q0.6 -2.25 2.25 -1.8 4.15 -1.3 4.8 -0.1" fill="#c96900" fill-rule="evenodd" stroke="none"/>
      <path d="M5.65 3.25 L5.85 4.75 6.15 6.95 Q6.35 8.15 5.4 9.1 L4.2 4.7 5.65 3.25" fill="#850000" fill-rule="evenodd" stroke="none"/>
      <path d="M3.65 -0.4 L0.15 -0.6 Q-0.7 -0.55 -1.4 -0.9 L-2.65 -2.05 Q-2.2 -2.7 -0.45 -2.55 L1.85 -2.5 3.45 -1.6 Q4.6 -0.75 3.65 -0.4" fill="#422300" fill-rule="evenodd" stroke="none"/>
      <path d="M1.75 9.55 L1.4 9.25 1.65 5.85 2.3 5.45 3.65 5.05 3.85 10.25 Q3.4 10.75 1.75 9.55" fill="#211100" fill-rule="evenodd" stroke="none"/>
      <path d="M-6.5 -0.45 L-6.0 -2.05 Q-5.35 -3.7 -4.55 -3.75 -0.85 -3.95 -0.15 -3.05 0.85 -1.9 0.1 -0.05 L-5.7 1.9 -8.25 1.15 -6.5 -0.45" fill="#ff8600" fill-rule="evenodd" stroke="none"/>
      <path d="M-12.4 6.6 Q-11.0 4.5 -7.5 4.85 -4.0 5.2 -1.4 9.0 L-2.85 9.45 Q-6.35 10.6 -11.25 9.65 -13.15 9.35 -13.15 8.4 L-12.4 6.6" fill="#ff8600" fill-rule="evenodd" stroke="none"/>
      <path d="M-0.15 -3.05 Q0.8 -2.15 0.3 -0.75 L-3.0 2.0 -6.05 3.9 -6.4 1.35 -6.5 -1.0 Q-6.35 -2.15 -5.8 -2.95 -5.0 -4.25 -2.7 -4.25 -1.15 -4.15 -0.15 -3.05" fill="#d46f00" fill-rule="evenodd" stroke="none"/>
      <path d="M-2.2 8.2 Q-4.0 5.4 -7.1 4.9 -10.1 4.5 -11.35 5.4" fill="none" stroke="#ffedd9" stroke-linecap="round" stroke-linejoin="round" stroke-width="1.0"/>
      <path d="M5.65 1.8 Q6.3 4.0 2.65 5.25 2.25 5.4 0.3 7.5 -1.55 9.45 -3.35 9.95 -7.2 10.95 -11.5 9.95 -13.05 9.6 -13.15 9.1" fill="none" stroke="#000000" stroke-linecap="round" stroke-linejoin="round" stroke-width="1.0"/>
      <path d="M-6.75 1.2 L-6.5 -0.45 -5.05 1.9 Q-4.6 2.2 0.3 -0.75 -2.15 1.65 -3.4 2.55 L-6.05 3.9 -6.75 1.2" fill="#8a4800" fill-rule="evenodd" stroke="none"/>
    </g>
  </defs>
</svg>
